svg/fluentui-system-icons/ic_fluent_table_add_16_regular.svg

<svg width="16" height="16" viewBox="0 0 16 16" fill="none" xmlns="http://www.w3.org/2000/svg">
<path d="M4.5 2C3.11929 2 2 3.11929 2 4.5V11.5C2 12.8807 3.11929 14 4.5 14H6.25716C5.47182 13.0491 5 11.8296 5 10.5C5 9.32259 5.36997 8.23159 6 7.33692V6L7.33692 6C8.2316 5.36997 9.32259 5 10.5 5C11.8296 5 13.0491 5.47182 14 6.25716V4.5C14 3.11929 12.8807 2 11.5 2H4.5ZM3 11H5V13H4.5C3.67157 13 3 12.3284 3 11.5V11ZM3 6H5V10H3V6ZM10 5L6 5V3H10V5ZM4.5 3H5V5H3V4.5C3 3.67157 3.67157 3 4.5 3ZM13 4.5V5H11V3H11.5C12.3284 3 13 3.67157 13 4.5ZM10.5 15C12.9853 15 15 12.9853 15 10.5C15 8.01472 12.9853 6 10.5 6C8.01472 6 6 8.01472 6 10.5C6 12.9853 8.01472 15 10.5 15ZM10.5 8C10.7761 8 11 8.22386 11 8.5V10H12.5C12.7761 10 13 10.2239 13 10.5C13 10.7761 12.7761 11 12.5 11H11V12.5C11 12.7761 10.7761 13 10.5 13C10.2239 13 10 12.7761 10 12.5V11H8.5C8.22386 11 8 10.7761 8 10.5C8 10.2239 8.22386 10 8.5 10H10V8.5C10 8.22386 10.2239 8 10.5 8Z" fill="#212121"/>
</svg>

<svg xmlns="http://www.w3.org/2000/svg" width="16" height="16"><path d="M4.5 2A2.5 2.5 0 0 0 2 4.5v7A2.5 2.5 0 0 0 4.5 14h1.757A5.478 5.478 0 0 1 5 10.5c0-1.177.37-2.268 1-3.163V6h1.337c.895-.63 1.986-1 3.163-1 1.33 0 2.55.472 3.5 1.257V4.5A2.5 2.5 0 0 0 11.5 2h-7ZM3 11h2v2h-.5A1.5 1.5 0 0 1 3 11.5V11Zm0-5h2v4H3V6Zm7-1H6V3h4v2ZM4.5 3H5v2H3v-.5A1.5 1.5 0 0 1 4.5 3ZM13 4.5V5h-2V3h.5A1.5 1.5 0 0 1 13 4.5ZM10.5 15a4.5 4.5 0 1 0 0-9 4.5 4.5 0 0 0 0 9Zm0-7a.5.5 0 0 1 .5.5V10h1.5a.5.5 0 0 1 0 1H11v1.5a.5.5 0 0 1-1 0V11H8.5a.5.5 0 0 1 0-1H10V8.5a.5.5 0 0 1 .5-.5Z"/></svg>
